assets/img/icons/duotone-icons/Electric/Kettle.svg

<?xml version="1.0" encoding="UTF-8"?>
<svg width="24px" height="24px" viewBox="0 0 24 24" version="1.1" xmlns="http://www.w3.org/2000/svg" xmlns:xlink="http://www.w3.org/1999/xlink">
    <!-- Generator: Sketch 52.2 (67145) - http://www.bohemiancoding.com/sketch -->
    <title>Stockholm-icons / Electric / Kettle</title>
    <desc>Created with Sketch.</desc>
    <g id="Stockholm-icons-/-Electric-/-Kettle" stroke="none" stroke-width="1" fill="none" fill-rule="evenodd">
        <rect id="bound" x="0" y="0" width="24" height="24"></rect>
        <path d="M18,2 C19.6568542,2 21,4.46243388 21,7.5 C21,9.89473621 20.1651912,11.932009 18.9999975,12.6870411 L19,19 L6,19 L6,9.20710678 C6,9.07449854 5.94732158,8.94732158 5.85355339,8.85355339 L4.37313832,7.37313832 C4.16951476,7.1453957 4.18808067,6.82932088 4.3944808,6.64582295 C6.92668014,4.39467552 8.96184021,3.01271993 10.5,2.5 C11.9160658,2.02797806 17.8056973,1.96558112 17.9271769,2.00158869 C17.9513814,2.00053156 17.9756568,2 18,2 Z M17.5,11 C17.7253478,11 19,9.07980431 19,7 C19,5.13211867 18.5,4.5 17.5,4 C17.5,4 17.5,12 17.5,11 Z M11,15 L12,15 C12.5522847,15 13,14.5522847 13,14 C13,13.4477153 12.5522847,13 12,13 L11,13 L11,12 L12,12 C12.5522847,12 13,11.5522847 13,11 C13,10.4477153 12.5522847,10 12,10 L11,10 L11,9 L12,9 C12.5522847,9 13,8.55228475 13,8 C13,7.44771525 12.5522847,7 12,7 L11,7 C11,5.8954305 11.8954305,5 13,5 C14.1045695,5 15,5.8954305 15,7 L15,15 C15,16.1045695 14.1045695,17 13,17 C11.8954305,17 11,16.1045695 11,15 Z" id="Combined-Shape" fill="#335EEA"></path>
        <path d="M6,20 L19,20 C19.5522847,20 20,20.4477153 20,21 L20,22 L5,22 L5,21 C5,20.4477153 5.44771525,20 6,20 Z" id="Rectangle" fill="#335EEA" opacity="0.3"></path>
    </g>
</svg>

<svg width="24" height="24" viewBox="0 0 24 24" xmlns="http://www.w3.org/2000/svg"><g fill="none" fill-rule="evenodd"><path d="M0 0h24v24H0z"/><path d="M18 2c1.657 0 3 2.462 3 5.5 0 2.395-.835 4.432-2 5.187V19H6V9.207a.5.5 0 00-.146-.353l-1.48-1.48c-.204-.229-.186-.545.02-.728C6.927 4.395 8.962 3.013 10.5 2.5c1.416-.472 7.306-.534 7.427-.498L18 2zm-.5 9c.225 0 1.5-1.92 1.5-4 0-1.868-.5-2.5-1.5-3v7zM11 15h1a1 1 0 000-2h-1v-1h1a1 1 0 000-2h-1V9h1a1 1 0 000-2h-1a2 2 0 114 0v8a2 2 0 11-4 0z" fill="#335EEA"/><path d="M6 20h13a1 1 0 011 1v1H5v-1a1 1 0 011-1z" fill="#335EEA" opacity=".3"/></g></svg>
